X: 2
T: The Ships In Full Sail
R: jig
M: 6/8
L: 1/8
K: Gmaj
|: DEG BAG | dBG Bcd | ege dBG | AGA BGE || DEG BAG | dBG Bcd | ef/g/e dBG |1 AGF G2 E :|2 AGF GBc |||: dgg bgg | aga bge | dgg bgg | aba age || dgg bgg | aga bgd | ege dBG | AGF GBc :|||: ~d3 dB/c/d | ede efg | ~d3 dBG | AGA ABc || ded dB/c/d | ede efg | dBG AGA |1 BGF GBc :|2 BGF G2 E ||


Tune 261	Setting 13001

